X:16353
T:Tell Her I Am
M:6/8
L:1/8
K:G Major
d|edB GFG|DED GFG|DED cBA|BGE E2d|!
edB GFG|DED GAB|AGF GBA|GFE D2:|!
d|BAB dBG|BAB dBG|ABA AGA|BGE E2D|!
BAB deg|age d2B|cBA GBA|GFE D2:|!
d|efg efg|dBG GBd|eaa aga|bge e2|!
[1 d|efg efg|dBG GBd|gfe dgb|agf e2:|!
[2 e|def gba|gfe d2B|cBA GBA|GFE D2|]!
